**kern	**text	**kern	**text	**kern	**text	**kern	**text	**kern	**text	**cdata-harm
*staff5	*staff5	*staff4	*staff4	*staff3	*staff3	*staff2	*staff2	*staff1	*staff1	*
=1-	=1-	=1-	=1-	=1-	=1-	=1-	=1-	=1-	=1-	=1-
*clefF4	*	*clefGv2	*	*clefGv2	*	*clefG2	*	*clefG2	*	*
*k[b-]	*	*k[b-]	*	*k[b-]	*	*k[b-]	*	*k[b-]	*	*
*M4/4	*	*M4/4	*	*M4/4	*	*M4/4	*	*M4/4	*	*
1r	.	1r	.	[1g\	Io-	[1b-\	Io-	1r	.	<CON1_4v+1doub+CON2_5v
=2	=2	=2	=2	=2	=2	=2	=2	=2	=2	.
1r	.	1r	.	2g\]	.	2b-\]	.	[1dd\	Io	.
.	.	.	.	2f#\	pen-	2a/	pen-	.	.	.
=3	=3	=3	=3	=3	=3	=3	=3	=3	=3	.
1r	.	1r	.	2g\	sai	2g/	sai	2dd\]	.	.
.	.	.	.	[2d\	dol-	[2f/	dol-	2dd\	pen-	.
=4	=4	=4	=4	=4	=4	=4	=4	=4	=4	.
1r	.	1r	.	2d\]	.	2f/]	.	1a/	sai	.
.	.	.	.	2c#\	cee	2e/	cee	.	.	.
=5	=5	=5	=5	=5	=5	=5	=5	=5	=5	.
2r	.	1r	.	1d\	gra-	[1a/	gra-	[1ff\	dol-	.
[2d\	Io-	.	.	.	.	.	.	.	.	.
=6	=6	=6	=6	=6	=6	=6	=6	=6	=6	.
2d\]	.	2r	.	1A/	to	2a/]	.	2ff\]	.	.
2c#\	pen-	2A/	Quel	.	.	2a/	to	2ee\	cee	.
=7	=7	=7	=7	=7	=7	=7	=7	=7	=7	.
2d\	sai	4.f\	dis-	1r	.	4r	.	[1dd\	gra-	.
.	.	.	.	.	.	4a/	Quel	.	.	.
.	.	8e\	pie-	.	.	.	.	.	.	.
[2G\	dol-	4.d\	ta-	.	.	4.b-\	dis-	.	.	.
.	.	8c\	toal-	.	.	8a/	pie-	.	.	.
=8	=8	=8	=8	=8	=8	=8	=8	=8	=8	.
2G\]	.	2B-\	lo-	2r	.	4g/	ta-	2dd\]	.	.
.	.	.	.	.	.	4g/	toal-	.	.	.
2F#\	cee	2A/	ro	4r	.	2a/	lo-	2dd\	to	.
.	.	.	.	4a\	Quel	.	.	.	.	.
=9	=9	=9	=9	=9	=9	=9	=9	=9	=9	.
[1G\	gra-	2r	.	4.b-\	dis-	1d/	ro	4r	.	.
.	.	.	.	.	.	.	.	4g/	Quel	.
.	.	.	.	8a\	pie-	.	.	.	.	.
.	.	4r	.	4.g\	ta-	.	.	4.b-\	dis-	.
.	.	4G/	Quel	.	.	.	.	.	.	.
.	.	.	.	8f\	toal-	.	.	8a/	pie-	.
=10	=10	=10	=10	=10	=10	=10	=10	=10	=10	.
2G\]	.	2B-\	dis-	4e\	lo-	1r	.	4g/	ta-	.
.	.	.	.	4d\	ro	.	.	4g/	toal-	.
4D\	to	4A/	pie-	2f\	quel	.	.	2a/	lo-	.
4D\	Quel	[4d\	ta-	.	.	.	.	.	.	.
=11	=11	=11	=11	=11	=11	=11	=11	=11	=11	.
4.B-\	dis-	4d\]	.	4.g\	dis-	1r	.	2d/	ro	.
.	.	4G/	toal-	.	.	.	.	.	.	.
8A\	pie-	.	.	8f\	pie-	.	.	.	.	.
4.G\	ta-	4.B-\	lo-	4e-\	ta-	.	.	2r	.	.
.	.	.	.	4d\	toal-	.	.	.	.	.
8F\	toal-	8A/	.	.	.	.	.	.	.	.
=12	=12	=12	=12	=12	=12	=12	=12	=12	=12	.
2E-\	lo-	2G/	.	2c\	lo-	2r	.	2r	.	.
2D\	ro	2A/	ro	2d\	ro	4r	.	4r	.	>
.	.	.	.	.	.	4f/	Che	4a/	Che	<ANTIF_2v+CON_1v
=13	=13	=13	=13	=13	=13	=13	=13	=13	=13	.
1r	.	1r	.	1r	.	4.g/	nac-	4.b-\	nac-	.
.	.	.	.	.	.	8f/	que	8a/	que	.
.	.	.	.	.	.	4g/	gi&agrave;	4b-\	gi&agrave;	.
.	.	.	.	.	.	4a/	d'un	4cc\	d'un	.
=14	=14	=14	=14	=14	=14	=14	=14	=14	=14	.
4D\	Che	1r	.	4f\	Che	2b-\	cor	4dd\	cor	.
[4E-\	nac-	.	.	[4g\	nac-	.	.	4b-\	cru-	.
8E-\L]	.	.	.	8g\L]	.	4r	.	2b-\	del	.
8D\J	que	.	.	8f\J	que	.	.	.	.	.
4E-\	gi&agrave;	.	.	4g\	gi&agrave;	4B-/	cru-	.	.	.
=15	=15	=15	=15	=15	=15	=15	=15	=15	=15	.
4C/	d'un	4c\	Che	4e-\	d'un	2g/	del	1r	.	.
[4BB-/	cor-	[4d\	nac-	4d\	cor	.	.	.	.	.
8BB-/L]	.	8d\L]	.	4r	.	2f/	ein-	.	.	.
8AA/J	.	8c\J	que	.	.	.	.	.	.	.
8BB-/L	.	4d\	gi&agrave;	4d\	cru-	.	.	.	.	.
8C/J	.	.	.	.	.	.	.	.	.	.
=16	=16	=16	=16	=16	=16	=16	=16	=16	=16	.
4D\	.	4B-\	d'un	4.f\	del	[1f/	gra-	4r	.	.
4D\	cru-	2A/	cor	.	.	.	.	4d/	cru-	.
.	.	.	.	8e\	ein	.	.	.	.	.
[2F\	del-	.	.	4d\	gra-	.	.	[2a/	del	.
.	.	4A/	cru-	4c\	.	.	.	.	.	.
=17	=17	=17	=17	=17	=17	=17	=17	=17	=17	.
2F\]	.	1d\	del	2A/	.	2f/]	.	2a/]	.	.
2D\	ein-	.	.	2F/	to.	2f/	to	[2b-\	ein-	.
=18	=18	=18	=18	=18	=18	=18	=18	=18	=18	.
[1G\	gra-	2d\	ein-	1r	.	2B-/	cru-	2b-\]	.	.
.	.	2e\	gra-	.	.	[2g/	del-	[2cc\	gra-	.
=19	=19	=19	=19	=19	=19	=19	=19	=19	=19	.
1G\]	.	4e\	.	1r	.	2g/]	.	4cc\]	.	.
.	.	4d\	.	.	.	.	.	8b-/L	.	.
.	.	.	.	.	.	.	.	8a/J	.	.
.	.	[2d\	.	.	.	2g/	ein-	2b-\	.	.
=20	=20	=20	=20	=20	=20	=20	=20	=20	=20	.
1A\	to.	2d\]	.	2r	.	2f/	gra-	2a/	to.	.
.	.	2c#\	to.	4r	.	2e/	to.	4r	.	>
.	.	.	.	4A/	Spe-	.	.	4ee\	Spe-	<CON_3v+1doub
=21	=21	=21	=21	=21	=21	=21	=21	=21	=21	.
1r	.	1r	.	2d\	rai	2r	.	2ff\	rai	.
.	.	.	.	4c\	frut-	4r	.	4ee\	frut-	.
.	.	.	.	8B-/L	ti	4f/	Spe-	8dd\L	ti	.
.	.	.	.	8A/J	ma-	.	.	8cc\J	ma-	.
=22	=22	=22	=22	=22	=22	=22	=22	=22	=22	.
1r	.	1r	.	2G/	tu-	2b-\	rai	2dd\	tu-	.
.	.	.	.	2d\	ri	4a/	frut-	4dd\	ri	.
.	.	.	.	.	.	8g/L	ti	4dd\	da	.
.	.	.	.	.	.	8f/J	ma-	.	.	.
=23	=23	=23	=23	=23	=23	=23	=23	=23	=23	.
1r	.	1r	.	4r	.	4g/	tu-	2cc\	cui	.
.	.	.	.	4d\	da	4a/	ri	.	.	.
.	.	.	.	4g\	cui	4r	.	4ee-\	sem-	.
.	.	.	.	[4f\	sem-	4d/	da	8dd\L	pre	.
.	.	.	.	.	.	.	.	8b-\J	li	.
=24	=24	=24	=24	=24	=24	=24	=24	=24	=24	.
1r	.	1r	.	4f\]	.	2a/	cui	4cc\	ren-	.
.	.	.	.	8e\L	pre	.	.	4cc\	dea-	.
.	.	.	.	8f\J	li	.	.	.	.	.
.	.	.	.	4g\	ren-	4b-\	sem-	2dd\	cer-	.
.	.	.	.	4g\	dea-	8b-/L	pre	.	.	.
.	.	.	.	.	.	8g/J	li	.	.	.
=25	=25	=25	=25	=25	=25	=25	=25	=25	=25	.
1r	.	1r	.	1f\	cer-	4a/	ren-	2cc\	bie	.
.	.	.	.	.	.	4a/	dea-	.	.	.
.	.	.	.	.	.	[2b-\	cer-	4.b-\	du-	.
.	.	.	.	.	.	.	.	16a/LL	.	.
.	.	.	.	.	.	.	.	16g/JJ	.	.
=26	=26	=26	=26	=26	=26	=26	=26	=26	=26	.
1r	.	1r	.	2f\	bie	4b-\]	.	2a/	.	.
.	.	.	.	.	.	2a/	bie	.	.	.
.	.	.	.	[2d\	du-	.	.	2a/	ri	.
.	.	.	.	.	.	[4g/	du-	.	.	.
=27	=27	=27	=27	=27	=27	=27	=27	=27	=27	.
1r	.	1r	.	2d\]	.	4g/]	.	1r	.	.
.	.	.	.	.	.	8f/L	.	.	.	.
.	.	.	.	.	.	8e/J	.	.	.	.
.	.	.	.	2d\	ri	4f#/	.	.	.	.
.	.	.	.	.	.	4f#/	ri	.	.	>
=28	=28	=28	=28	=28	=28	=28	=28	=28	=28	.
[1G\	E-	[1d\	E-	2r	.	2r	.	1r	.	<HOM_4v
.	.	.	.	[2B-\	E-	[2g/	E-	.	.	.
=29	=29	=29	=29	=29	=29	=29	=29	=29	=29	.
2G\]	.	2d\]	.	2B-\]	.	2g/]	.	2r	.	.
2G\	sti-	2d\	sti-	2B-\	sti-	2g/	sti-	4r	.	.
.	.	.	.	.	.	.	.	8b-\L	che	<<CON_5v
.	.	.	.	.	.	.	.	8cc\J	d'a-	.
=30	=30	=30	=30	=30	=30	=30	=30	=30	=30	.
1E-\	mai	2G/	mai	1B-\	mai	1g/	mai	4dd\	mor	>
.	.	.	.	.	.	.	.	4dd\	le	.
.	.	4r	.	.	.	.	.	4cc\	frec-	.
.	.	8G/L	che	.	.	.	.	4b-\	cie	.
.	.	8A/J	d'a-	.	.	.	.	.	.	.
=31	=31	=31	=31	=31	=31	=31	=31	=31	=31	.
2r	.	4B-\	mor	1r	.	4r	.	2a/	d'o-	.
.	.	4B-\	le	.	.	8f/L	che	.	.	.
.	.	.	.	.	.	8g/J	d'a-	.	.	.
4r	.	4A/	frec-	.	.	4a/	mor	4g/	ro	.
8D\L	che	4d\	cie	.	.	4f/	le	8b-\L	che	.
8E\J	d'a-	.	.	.	.	.	.	8cc\J	d'a-	.
=32	=32	=32	=32	=32	=32	=32	=32	=32	=32	.
4F\	mor	4c\	d'o-	4r	.	4f/	frec-	4dd\	mor	.
4F\	le	8A/L	ro	8c\L	che	4f/	cie	4g/	le	.
.	.	8A/J	le	8d\J	d'a-	.	.	.	.	.
4.E-\	frec-	4B-\	frec-	4e-\	mor	[2g/	d'o-	4.f/	frec-	.
.	.	4G/	cie	4e-\	le	.	.	.	.	.
8C/	cie	.	.	.	.	.	.	8g/	cie	.
=33	=33	=33	=33	=33	=33	=33	=33	=33	=33	.
2G\	d'o-	2B-\	d'o-	4d\	frec-	4g/]	.	2a/	d'o-	.
.	.	.	.	4B-\	cie	4d/	ro	.	.	.
2D\	ro	2A/	ro	2d\	d'o-	2r	.	2g/	ro	>
=34	=34	=34	=34	=34	=34	=34	=34	=34	=34	.
2F\	l&agrave;	4r	.	2A/	ro	4c/	L&agrave;	1r	.	<CON_3v+1doub
.	.	4A/	L&agrave;	.	.	2d/	fol-	.	.	.
2G\	fol-	2B-\	fol-	2r	.	.	.	.	.	.
.	.	.	.	.	.	4e/	go-	.	.	.
=35	=35	=35	=35	=35	=35	=35	=35	=35	=35	.
4A\	go-	4c\	go-	1r	.	2f/	ras-	1r	.	.
2B-\	ras-	2d\	ras-	.	.	.	.	.	.	.
.	.	.	.	.	.	4g/	sin	.	.	.
4c\	sin	4e\	sin	.	.	[4a/	do-	.	.	.
=36	=36	=36	=36	=36	=36	=36	=36	=36	=36	.
4d\	do-	4f\	do-	1r	.	8a/L]	.	1r	.	.
.	.	.	.	.	.	8f/J	ve	.	.	.
8c\L	ve	8e\L	ve	.	.	4g/	mai	.	.	.
8B-\J	mai	8d\J	mai	.	.	.	.	.	.	.
4A\	non	4c\	non	.	.	4a/	non	.	.	.
4G\	saet-	4d\	saet-	.	.	4b-\	saet-	.	.	.
=37	=37	=37	=37	=37	=37	=37	=37	=37	=37	.
2.F\	ta	8f\L	.	1r	.	2.a/	ta	1r	.	.
.	.	8e\J	.	.	.	.	.	.	.	.
.	.	8d\L	.	.	.	.	.	.	.	.
.	.	8c\J	.	.	.	.	.	.	.	.
.	.	8d\L	.	.	.	.	.	.	.	.
.	.	8A\J	.	.	.	.	.	.	.	.
4E\	Gio-	[4c\	.	.	.	4g/	Gio-	.	.	.
=38	=38	=38	=38	=38	=38	=38	=38	=38	=38	.
2D\	.	4c\]	.	1r	.	8a/L	.	1r	.	.
.	.	.	.	.	.	16g/L	.	.	.	.
.	.	.	.	.	.	16f/JJ	.	.	.	.
.	.	4B-\	te	.	.	2g/	.	.	.	.
2D\	ve.	2A/	Gio-	.	.	.	.	.	.	.
.	.	.	.	.	.	4f/	.	.	.	.
=39	=39	=39	=39	=39	=39	=39	=39	=39	=39	.
1r	.	1G/	ve.	[1d\	Ahi	1g/	ve.	1r	.	>
=40	=40	=40	=40	=40	=40	=40	=40	=40	=40	.
[1G\	Ahi	1r	.	1d\]	.	1r	.	[1b-\	Ahi	<ANTIF_5v
=41	=41	=41	=41	=41	=41	=41	=41	=41	=41	.
1G\]	.	[1B-\	Ahi	1r	.	[1d/	Ahi	1b-\]	.	.
=42	=42	=42	=42	=42	=42	=42	=42	=42	=42	.
1r	.	1B-\]	.	[1G/	Ahi	1d/]	.	1r	.	.
=43	=43	=43	=43	=43	=43	=43	=43	=43	=43	.
[1E-\	Ahi	1r	.	1G/]	.	1r	.	[1b-\	Ahi	.
=44	=44	=44	=44	=44	=44	=44	=44	=44	=44	.
1E-\]	.	1e-\	Ahi	2r	.	1g/	trop-	1b-\]	.	.
.	.	.	.	[2B-\	trop-	.	.	.	.	>
=45	=45	=45	=45	=45	=45	=45	=45	=45	=45	.
1BB-/	trop-	[1d\	trop-	2B-\]	.	[1f/	po-	1b-\	trop-	<HOMlib_5v
.	.	.	.	2B-\	po	.	.	.	.	.
=46	=46	=46	=46	=46	=46	=46	=46	=46	=46	.
2D\	po	2d\]	.	2.F/	gra-	2f/]	.	2a/	po	.
[2F\	gra-	2c\	gra-	.	.	2f/	gra-	[2a/	gra-	.
.	.	.	.	4G/	.	.	.	.	.	.
=47	=47	=47	=47	=47	=47	=47	=47	=47	=47	.
2F\]	.	2.d\	vee-	2A/	.	2f/	vee	2a/]	.	.
2G\	vee-	.	.	2B-\	vee-	2d/	mo-	2g/	vee-	.
.	.	4e\	rro-	.	.	.	.	.	.	.
=48	=48	=48	=48	=48	=48	=48	=48	=48	=48	.
[1D\	rro-	[1f\	.	[1A/	rro-	[1d/	re-	[1a/	rro-	.
=49	=49	=49	=49	=49	=49	=49	=49	=49	=49	.
2D\]	.	2f\]	.	2A/]	.	2d/]	.	2a/]	.	.
2AA/	.	2e\	.	2A/	re	2c#/	ma	2a/	re	.
=50	=50	=50	=50	=50	=50	=50	=50	=50	=50	.
1AA/	re	2e\	re	2r	.	1c#/	.	2r	.	>
.	.	4r	.	2A/	Ma	.	.	2ee\	Ma	<HOM_3v
.	.	4a\	Ma	.	.	.	.	.	.	.
=51	=51	=51	=51	=51	=51	=51	=51	=51	=51	.
1r	.	4.a\	col-	4.d\	col-	1r	.	4.ff\	col-	.
.	.	8a\	pa	8c\	pa	.	.	8ee\	pa	.
.	.	4a\	mia	4d\	mia	.	.	4ff\	mia	.
.	.	4g\	non	4B-\	non	.	.	4dd\	non	.
=52	=52	=52	=52	=52	=52	=52	=52	=52	=52	.
1r	.	2a\	fu	2A/	fu	1r	.	2cc\	fu	.
.	.	4a\	piu	2d\	piu	.	.	4r	.	.
.	.	4a\	ch	.	.	.	.	4ff\	piu	.
=53	=53	=53	=53	=53	=53	=53	=53	=53	=53	.
1r	.	4a\	d'A-	4d\	che	1r	.	4ff\	che	.
.	.	[4f\	mo-	4d\	d'A-	.	.	4ff\	d'A-	.
.	.	8f\L]	.	4.B-\	mo-	.	.	4.dd\	mo-	.
.	.	8d\J	.	.	.	.	.	.	.	.
.	.	[4g\	.	.	.	.	.	.	.	.
.	.	.	.	8c\	.	.	.	16cc\LL	.	.
.	.	.	.	.	.	.	.	16b-\JJ	.	.
=54	=54	=54	=54	=54	=54	=54	=54	=54	=54	.
1r	.	4g\]	.	2d\	.	1r	.	2a/	.	.
.	.	4f\	.	.	.	.	.	.	.	.
.	.	4g\	re	2G/	re	.	.	2g/	re	>
.	.	4d\	pi&ugrave;	.	.	.	.	.	.	.
=55	=55	=55	=55	=55	=55	=55	=55	=55	=55	.
2D\	Ma	2f\	che	1r	.	2a/	Ma	1r	.	<ANTIF_3v
4.G\	col-	4e-\	d'A-	.	.	4.b-\	col-	.	.	.
.	.	[4d\	mo-	.	.	.	.	.	.	.
8F\	pa	.	.	.	.	8a/	pa	.	.	.
=56	=56	=56	=56	=56	=56	=56	=56	=56	=56	.
4G\	mia	4d\]	.	1r	.	4b-\	mia	1r	.	.
4E-\	non	4c\	.	.	.	4g/	non	.	.	.
2D\	fu	2d\	re	.	.	2f/	fu	.	.	.
=57	=57	=57	=57	=57	=57	=57	=57	=57	=57	.
2F\	piu	4r	.	2A/	Ma	4r	.	1r	.	.
.	.	4c\	Ma	.	.	4a/	piu	.	.	.
4F\	che	4.A/	col-	4.d\	col-	4a/	che	.	.	.
4F\	d'A-	.	.	.	.	4a/	d'A-	.	.	.
.	.	8A/	pa	8c\	pa	.	.	.	.	.
=58	=58	=58	=58	=58	=58	=58	=58	=58	=58	.
4.D\	mo-	4A/	mia	4d\	mia	4.f/	mo-	1r	.	.
.	.	4d\	non	4B-\	non	.	.	.	.	.
8E\	.	.	.	.	.	8g/	.	.	.	.
2F\	.	2c\	fu	2A/	fu	8a/L	.	.	.	.
.	.	.	.	.	.	8b-/J	.	.	.	.
.	.	.	.	.	.	8cc/L	.	.	.	.
.	.	.	.	.	.	8a/J	.	.	.	.
=59	=59	=59	=59	=59	=59	=59	=59	=59	=59	.
4BB-/	re	1r	.	2d\	piu	4b-\	.	4r	.	.
4D\	Ma	.	.	.	.	4a/	re	4f/	Ma	.
4.G\	col-	.	.	4d\	che	2r	.	4.b-\	col-	.
.	.	.	.	4d\	d'A-	.	.	.	.	.
8F\	pa	.	.	.	.	.	.	8a/	pa	.
=60	=60	=60	=60	=60	=60	=60	=60	=60	=60	.
4G\	mia	1r	.	4.B-\	mo-	2r	.	4b-\	mia	.
4E-\	non	.	.	.	.	.	.	4g/	non	.
.	.	.	.	8c\	.	.	.	.	.	.
2D\	fu	.	.	2d\	.	4r	.	2f/	fu	.
.	.	.	.	.	.	4a/	piu	.	.	.
=61	=61	=61	=61	=61	=61	=61	=61	=61	=61	.
4r	.	2d\	piu	4G/	re	2b-\	che	4r	.	.
4D\	piu	.	.	2d\	piu	.	.	4ff\	piu	.
4D\	che	4f\	che	.	.	4a/	d'A-	2ff\	che	.
4D\	d'A-	4d\	d'a-	[4f\	che	[4a/	mo-	.	.	.
=62	=62	=62	=62	=62	=62	=62	=62	=62	=62	.
4.BB-/	mo-	4.d\	mo-	4f\]	.	4a/]	.	4dd\	d'A-	.
.	.	.	.	4d\	d'A-	2g/	.	[4dd\	mo-	.
8C/	.	16c\LL	.	.	.	.	.	.	.	.
.	.	16B-\JJ	.	.	.	.	.	.	.	.
2D\	.	2A/	.	2d\	mo-	.	.	8dd\L]	.	.
.	.	.	.	.	.	.	.	8cc\J	.	.
.	.	.	.	.	.	4f/	.	4a/	.	.
=63	=63	=63	=63	=63	=63	=63	=63	=63	=63	.
1G\	re.	1G/	re.	1d\	re.	1g/	re.	1bn\	re.	>
==	==	==	==	==	==	==	==	==	==	==
*-	*-	*-	*-	*-	*-	*-	*-	*-	*-	*-